assets/img/braze_icons/info-octagon.svg

<svg fill="none" height="24" viewBox="0 0 24 24" width="24" xmlns="http://www.w3.org/2000/svg"><path clip-rule="evenodd" d="m8.52275.999947-.05104-.000092c-.18991-.000507-.42905-.001146-.66438.055355-.20407.04899-.39916.1298-.57811.23946-.20635.12645-.37499.296-.50892.43064l-.03603.03616-4.92274 4.92274-.03615.03603c-.13465.13392-.3042.30257-.43065.50892-.10966.17895-.19047.37404-.23946.57811-.0565.23533-.055861.47447-.055354.66438l.000094.05104v6.95451l-.000094.051c-.000507.19-.001146.4291.055354.6644.04899.2041.1298.3992.23946.5781.12645.2064.296.375.43065.509l.03615.036 4.92274 4.9227.03604.0362c.13392.1346.30256.3042.50891.4306.17895.1097.37404.1905.57811.2395.23533.0565.47447.0558.66439.0553l.05103-.0001h6.95455l.051.0001c.1899.0005.4291.0012.6644-.0553.2041-.049.3991-.1298.5781-.2395.2063-.1264.375-.296.5089-.4306l.036-.0362 4.9228-4.9227.0361-.036c.1347-.134.3042-.3026.4307-.509.1096-.1789.1905-.374.2394-.5781.0565-.2353.0559-.4745.0554-.6644l-.0001-.051v-6.95451l.0001-.05103c.0005-.18992.0011-.42906-.0554-.66439-.0489-.20407-.1298-.39916-.2394-.57811-.1265-.20634-.296-.37499-.4306-.50891l-.0362-.03604-4.9228-4.92274-.036-.03616c-.1339-.13464-.3026-.30419-.5089-.43064-.179-.10966-.374-.19047-.5781-.23946-.2353-.056501-.4745-.055862-.6644-.055355l-.051.000092zm3.47725 6.000053c-.5523 0-1 .44772-1 1s.4477 1 1 1h.01c.5523 0 1-.44772 1-1s-.4477-1-1-1zm1 5c0-.5523-.4477-1-1-1s-1 .4477-1 1v4c0 .5523.4477 1 1 1s1-.4477 1-1z" fill="#801ed7" fill-rule="evenodd"/></svg>

<svg width="24" height="24" viewBox="0 0 24 24" fill="none" xmlns="http://www.w3.org/2000/svg">
<path fill-rule="evenodd" clip-rule="evenodd" d="M8.52275 0.999947L8.47171 0.999855C8.2818 0.999348 8.04266 0.998709 7.80733 1.05521C7.60326 1.1042 7.40817 1.18501 7.22922 1.29467C7.02287 1.42112 6.85423 1.59067 6.7203 1.72531L6.68427 1.76147L1.76153 6.68421L1.72538 6.72024C1.59073 6.85416 1.42118 7.02281 1.29473 7.22916C1.18507 7.40811 1.10426 7.6032 1.05527 7.80727C0.99877 8.0426 0.999409 8.28174 0.999916 8.47165L1.00001 8.52269V15.4772L0.999916 15.5282C0.999409 15.7182 0.99877 15.9573 1.05527 16.1926C1.10426 16.3967 1.18507 16.5918 1.29473 16.7707C1.42118 16.9771 1.59073 17.1457 1.72538 17.2797L1.76153 17.3157L6.68427 22.2384L6.72031 22.2746C6.85423 22.4092 7.02287 22.5788 7.22922 22.7052C7.40817 22.8149 7.60326 22.8957 7.80733 22.9447C8.04266 23.0012 8.2818 23.0005 8.47172 23L8.52275 22.9999H15.4773L15.5283 23C15.7182 23.0005 15.9574 23.0012 16.1927 22.9447C16.3968 22.8957 16.5918 22.8149 16.7708 22.7052C16.9771 22.5788 17.1458 22.4092 17.2797 22.2746L17.3157 22.2384L22.2385 17.3157L22.2746 17.2797C22.4093 17.1457 22.5788 16.9771 22.7053 16.7707C22.8149 16.5918 22.8958 16.3967 22.9447 16.1926C23.0012 15.9573 23.0006 15.7181 23.0001 15.5282L23 15.4772V8.52269L23.0001 8.47166C23.0006 8.28174 23.0012 8.0426 22.9447 7.80727C22.8958 7.6032 22.8149 7.40811 22.7053 7.22916C22.5788 7.02282 22.4093 6.85417 22.2747 6.72025L22.2385 6.68421L17.3157 1.76147L17.2797 1.72531C17.1458 1.59067 16.9771 1.42112 16.7708 1.29467C16.5918 1.18501 16.3968 1.1042 16.1927 1.05521C15.9574 0.998709 15.7182 0.999348 15.5283 0.999855L15.4773 0.999947H8.52275ZM12 7C11.4477 7 11 7.44772 11 8C11 8.55228 11.4477 9 12 9H12.01C12.5623 9 13.01 8.55228 13.01 8C13.01 7.44772 12.5623 7 12.01 7H12ZM13 12C13 11.4477 12.5523 11 12 11C11.4477 11 11 11.4477 11 12V16C11 16.5523 11.4477 17 12 17C12.5523 17 13 16.5523 13 16V12Z" fill="#801ED7"/>
</svg>
